svg/u1f5de.svg

<svg viewBox="0 0 128 128" xmlns="http://www.w3.org/2000/svg">
  <g>
    <path d="M89.5,117.03c-7.44-7.18-18.13-23.6-18.13-23.6s21.98-20.28,23.45-20.47 c1.47-0.19,26.35,12.9,26.35,12.9s-4.06,25.45-10.97,29.82C103.27,120.05,89.5,117.03,89.5,117.03z" fill="#A3A3A3"/>
    <path d="M91.54,80.93c0,0-5.89,6.93-8.37,15.58c-1.73,6.03-1.4,11.57-1.4,11.57L74.22,98l5.57-8.07 L91.54,80.93z" fill="#646464"/>
    <path d="M14.85,23.37C8.81,37.83,8.74,56.38,8.74,56.38l28.88,13.47l26.52,43.19 c0,0,11.04-16.04,13.69-22.26L14.85,23.37z" fill="#A3A3A3"/>
    <path d="M95.58,89.09l16.76,22.7c0,0,15.85-23.68,0.66-34.04c-3.42-2.33-17.88-4.84-19.77-4.22L95.58,89.09z " fill="#646464"/>
    <path d="M59.58,113.04l-0.14,0.02c-0.14,0.09-0.29,0.17-0.43,0.26C59.18,113.24,59.41,113.12,59.58,113.04z" fill="#CFCFCF"/>
    <path d="M112.21,69.72c-3.22-1.94-63.51-35.96-70.69-41.11l-30.43,2.63l-6.87,8.32l2.27,2.6L4,47.95 c0,0,34.38,19.27,34.38,19.27c2.01,4.85,13.41,30.59,19,43.72c0,0,9.57-8.34,13.98-14.33l-7.22,16.42l8.77,4.19 c0,0,1.56-19.59,13.36-31.42c11.63-11.65,19.72-9.6,25.04-3.75c8.44,9.28,0.02,27.74-9.83,27.01c-7.64-0.56-2.59-12-3.04-19.49 c-0.42-7.03-3.69-9.4-4.6-9.63c-0.91-0.23-4.34,4.53-5.46,8.93c-5.59,21.92-0.99,29.92,7.2,31.48 c12.35,2.34,21.93-5.48,26.42-19.08C126.64,87.21,123.13,76.29,112.21,69.72z" fill="#CFCFCF"/>
    <path d="M93.66,86.5c0,0,1.9,7.16-0.49,16.12c-1.24-2.42-1.21-5.83-0.96-8.54 C92.54,90.44,93.66,86.5,93.66,86.5z" fill="#A3A3A3"/>
    <path d="M97.19,113.04c1.13,0.27,2.22,0.54,3.32,0.58c1.09,0.06,2.16-0.03,3.19-0.26 c2.05-0.51,3.92-1.56,5.58-2.94c1.68-1.35,3.18-2.98,4.59-4.7c1.41-1.73,2.74-3.55,4.07-5.45c-0.57,2.25-1.56,4.38-2.78,6.36 c-1.22,1.99-2.76,3.82-4.6,5.35c-1.86,1.5-4.13,2.67-6.6,2.92c-1.23,0.12-2.46-0.01-3.61-0.32 C99.19,114.26,98.14,113.7,97.19,113.04z" fill="#A3A3A3"/>
    <path d="M112.64,69.85c0,0-14.88-14.94-36.46-28.81c0,0-19.61-26.77-21.85-29.31 c-4.3-4.88-13.07-5.16-20.41-3.8C18.79,10.74,9.79,21.9,4.04,30.98l33.84,31.86l18.84,39.76c9.69-7.69,11.85-17.75,25.84-27.41 C99.91,63.2,112.64,69.85,112.64,69.85z" fill="#EEEEEE"/>
    <path d="M81.15,83.92c1.03-1.39,2.12-2.77,3.35-4.02c1.29-1.18,2.54-2.44,4.05-3.4 c1.4-1.11,3.04-1.86,4.64-2.71c0.83-0.35,1.7-0.62,2.56-0.94c0.42-0.17,0.86-0.29,1.31-0.38l1.34-0.31 c0.89-0.22,1.82-0.25,2.74-0.33c0.91-0.11,1.84-0.06,2.76,0c1.84,0.14,3.67,0.54,5.38,1.2c0.43,0.16,0.84,0.38,1.26,0.57 c0.41,0.21,0.84,0.36,1.21,0.64c0.77,0.5,1.54,0.98,2.22,1.59c1.35,1.19,2.6,2.58,3.19,4.27l-0.17,0.1 c-0.9-1.44-2.22-2.56-3.62-3.5c-1.39-0.97-2.97-1.62-4.57-2.16c-3.24-0.98-6.72-1.07-10.03-0.41l-1.24,0.26 c-0.42,0.07-0.83,0.18-1.22,0.33c-0.8,0.27-1.61,0.53-2.41,0.81c-1.54,0.71-3.11,1.37-4.53,2.31c-1.5,0.81-2.83,1.88-4.21,2.87 c-1.35,1.03-2.58,2.22-3.87,3.32L81.15,83.92z" fill="#A3A3A3"/>
    <path d="M4.22,39.54l20.2,16.52L5.73,44.04c0,0,0.38-0.9,0.56-1.4L4.22,39.54z" fill="#A3A3A3"/>
    <g opacity="0.7">
      <g>
        <path d="M45.99,11.18L56.43,24.2c0.64-0.04,1.24-0.06,1.82-0.06L47.95,11.3 C47.42,11.24,46.75,11.2,45.99,11.18z" fill="#A3A3A3"/>
        <path d="M37.04,12.06l12.15,13.76c0.49-0.2,0.98-0.38,1.47-0.53L38.69,11.73 C38.15,11.83,37.6,11.94,37.04,12.06z" fill="#A3A3A3"/>
      </g>
    </g>
    <g opacity="0.7">
      <g>
        <path d="M62.61,28.84c-0.57,0.01-1.15,0.03-1.75,0.07c3.26,4.83,7.8,10.73,12.8,14.77 c0.69-0.11,1.38-0.19,2.09-0.24C70.74,39.75,66.05,33.83,62.61,28.84z" fill="#A3A3A3"/>
        <path d="M55.26,29.79c-0.49,0.13-0.98,0.27-1.47,0.43c2.87,4.42,7.47,11.02,12.24,15.81 c0.47-0.22,0.95-0.43,1.43-0.63C62.82,40.84,58.2,34.29,55.26,29.79z" fill="#A3A3A3"/>
        <path d="M49.02,32.48c-0.34,0.22-0.67,0.44-0.99,0.68c-0.07,0.05-0.14,0.11-0.2,0.16 C50.43,37.27,55.33,44.4,60,49.61c0.39-0.28,0.79-0.56,1.2-0.84C56.6,43.66,51.63,36.43,49.02,32.48z" fill="#A3A3A3"/>
        <path d="M42.9,38.07c2.65,3.83,7.62,10.86,11.89,15.92c0.34-0.33,0.7-0.66,1.06-0.99 c-3.99-4.75-8.84-11.53-11.95-16.03C43.57,37.32,43.23,37.69,42.9,38.07z" fill="#A3A3A3"/>
        <path d="M38.53,43.59c3.05,4.22,7.94,10.89,11.62,15.44c0.3-0.37,0.62-0.75,0.95-1.13 c-3.11-3.89-7.45-9.7-11.66-15.54C39.12,42.78,38.82,43.19,38.53,43.59z" fill="#A3A3A3"/>
        <path d="M34.52,49.55l11.47,15.22c0.19-0.31,0.47-0.74,0.84-1.3L35.35,48.23 C34.98,48.81,34.7,49.26,34.52,49.55z" fill="#A3A3A3"/>
      </g>
    </g>
    <path d="M67.55,52.3l-3.12,2.43L75.99,71.1c0,0,2.55-2.48,4.39-3.16L67.55,52.3z" fill="#A3A3A3"/>
    <path d="M44.61,27.94C33.66,36.3,29.43,45.71,29.43,45.71L13.05,30.36c0,0,8.59-14.02,18.8-16.76 L44.61,27.94z" fill="#C2C2C2"/>
    <polygon points="8.03,34.8 6.83,36.34 23.96,49.77 " fill="#A3A3A3"/>
    <path d="M13.05,30.36l16.38,15.35c0,0,2.38-5.29,8.19-11.46l-0.06-7.12l-13.61,2.88l0.01-5.07l-7.29,0.49 C14.43,28.21,13.05,30.36,13.05,30.36z" fill="#A3A3A3"/>
    <g opacity="0.7">
      <g>
        <path d="M71.78,50.26l14.03,15.46c0.67-0.26,1.34-0.48,1.99-0.66L73.83,49.68L71.78,50.26z" fill="#A3A3A3"/>
        <path d="M81.24,48.91c-0.8-0.05-1.71-0.05-2.69,0.01l16.02,14.61c0,0,1.63-0.53,2.63-0.19L81.24,48.91z" fill="#A3A3A3"/>
        <path d="M59.58,59.76l10.46,17.35c0.44-0.54,0.88-1.07,1.33-1.59L61,58.33 C60.53,58.79,60.05,59.27,59.58,59.76z" fill="#A3A3A3"/>
        <path d="M54.32,65.38l9.76,19.11c0.49-0.58,0.95-1.14,1.36-1.64l-9.71-19.02 C55.25,64.35,54.78,64.87,54.32,65.38z" fill="#A3A3A3"/>
        <path d="M48.98,71.52l8.76,20.5c0.41-0.49,0.89-1.06,1.41-1.67l-8.76-20.49 C49.79,70.55,49.31,71.12,48.98,71.52z" fill="#A3A3A3"/>
      </g>
    </g>
    <g>
      <path d="M38.19,71.92l-1.48-2.21c-0.13-0.19-0.19-0.42-0.16-0.65c0.22-2.13,2.07-13.19,17.23-23.22 c11.47-7.59,19.39-6.98,21.26-6.77c0.26,0.03,0.5,0.16,0.68,0.35l1.87,2.08c0.19,0.21,0.05,0.55-0.24,0.55 c-2.59-0.01-11.5,0.45-21.42,7.02c-13.57,8.98-16.72,20.17-17.29,22.77C38.58,72.05,38.31,72.09,38.19,71.92z" fill="#DEA076"/>
      <path d="M77.34,42.05c-2.16,0.03-4.31,0.35-6.4,0.85c-2.09,0.48-4.15,1.14-6.13,1.96 c-3.97,1.63-7.71,3.77-11.13,6.37c-3.46,2.53-6.56,5.54-9.18,8.94c-1.31,1.7-2.48,3.5-3.47,5.41c-1.01,1.9-1.84,3.9-2.35,6 c0.68-4.3,2.72-8.3,5.23-11.86c2.54-3.56,5.72-6.63,9.2-9.27c3.51-2.58,7.34-4.78,11.44-6.29C68.63,42.67,73,41.74,77.34,42.05z " fill="#C17E52"/>
    </g>
  </g>
</svg>

<svg viewBox="0 0 128 128" xmlns="http://www.w3.org/2000/svg">
  <defs/>
  <path d="M89.5,117.03 C82.06,109.85 71.37,93.43 71.37,93.43 C71.37,93.43 93.35,73.15 94.82,72.96 C96.29,72.77 121.17,85.86 121.17,85.86 C121.17,85.86 117.11,111.31 110.2,115.68 C103.27,120.05 89.5,117.03 89.5,117.03 Z" fill="#A3A3A3"/>
  <path d="M91.54,80.93 C91.54,80.93 85.65,87.86 83.17,96.51 C81.44,102.54 81.77,108.08 81.77,108.08 L74.22,98 L79.79,89.93 L91.54,80.93 Z" fill="#646464"/>
  <path d="M14.85,23.37 C8.81,37.83 8.74,56.38 8.74,56.38 L37.62,69.85 L64.14,113.04 C64.14,113.04 75.18,97 77.83,90.78 L14.85,23.37 Z" fill="#A3A3A3"/>
  <path d="M95.58,89.09 L112.34,111.79 C112.34,111.79 128.19,88.11 113,77.75 C109.58,75.42 95.12,72.91 93.23,73.53 L95.58,89.09 Z" fill="#646464"/>
  <path d="M59.58,113.04 L59.44,113.06 C59.3,113.15 59.15,113.23 59.01,113.32 C59.18,113.24 59.41,113.12 59.58,113.04 Z" fill="#CFCFCF"/>
  <path d="M112.21,69.72 C108.99,67.78 48.7,33.76 41.52,28.61 L11.09,31.24 L4.22,39.56 L6.49,42.16 L4,47.95 C4,47.95 38.38,67.22 38.38,67.22 C40.39,72.07 51.79,97.81 57.38,110.94 C57.38,110.94 66.95,102.6 71.36,96.61 L64.14,113.03 L72.91,117.22 C72.91,117.22 74.47,97.63 86.27,85.8 C97.9,74.15 105.99,76.2 111.31,82.05 C119.75,91.33 111.33,109.79 101.48,109.06 C93.84,108.5 98.89,97.06 98.44,89.57 C98.02,82.54 94.75,80.17 93.84,79.94 C92.93,79.71 89.5,84.47 88.38,88.87 C82.79,110.79 87.39,118.79 95.58,120.35 C107.93,122.69 117.51,114.87 122,101.27 C126.64,87.21 123.13,76.29 112.21,69.72 Z" fill="#CFCFCF"/>
  <path d="M93.66,86.5 C93.66,86.5 95.56,93.66 93.17,102.62 C91.93,100.2 91.96,96.79 92.21,94.08 C92.54,90.44 93.66,86.5 93.66,86.5 Z" fill="#A3A3A3"/>
  <path d="M97.19,113.04 C98.32,113.31 99.41,113.58 100.51,113.62 C101.6,113.68 102.67,113.59 103.7,113.36 C105.75,112.85 107.62,111.8 109.28,110.42 C110.96,109.07 112.46,107.44 113.87,105.72 C115.28,103.99 116.61,102.17 117.94,100.27 C117.37,102.52 116.38,104.65 115.16,106.63 C113.94,108.62 112.4,110.45 110.56,111.98 C108.7,113.48 106.43,114.65 103.96,114.9 C102.73,115.02 101.5,114.89 100.35,114.58 C99.19,114.26 98.14,113.7 97.19,113.04 Z" fill="#A3A3A3"/>
  <path d="M112.64,69.85 C112.64,69.85 97.76,54.91 76.18,41.04 C76.18,41.04 56.57,14.27 54.33,11.73 C50.03,6.85 41.26,6.57 33.92,7.93 C18.79,10.74 9.79,21.9 4.04,30.98 L37.88,62.84 L56.72,102.6 C66.41,94.91 68.57,84.85 82.56,75.19 C99.91,63.2 112.64,69.85 112.64,69.85 Z" fill="#EEEEEE"/>
  <path d="M81.15,83.92 C82.18,82.53 83.27,81.15 84.5,79.9 C85.79,78.72 87.04,77.46 88.55,76.5 C89.95,75.39 91.59,74.64 93.19,73.79 C94.02,73.44 94.89,73.17 95.75,72.85 C96.17,72.68 96.61,72.56 97.06,72.47 L98.4,72.16 C99.29,71.94 100.22,71.91 101.14,71.83 C102.05,71.72 102.98,71.77 103.9,71.83 C105.74,71.97 107.57,72.37 109.28,73.03 C109.71,73.19 110.12,73.41 110.54,73.6 C110.95,73.81 111.38,73.96 111.75,74.24 C112.52,74.74 113.29,75.22 113.97,75.83 C115.32,77.02 116.57,78.41 117.16,80.1 L116.99,80.2 C116.09,78.76 114.77,77.64 113.37,76.7 C111.98,75.73 110.4,75.08 108.8,74.54 C105.56,73.56 102.08,73.47 98.77,74.13 L97.53,74.39 C97.11,74.46 96.7,74.57 96.31,74.72 C95.51,74.99 94.7,75.25 93.9,75.53 C92.36,76.24 90.79,76.9 89.37,77.84 C87.87,78.65 86.54,79.72 85.16,80.71 C83.81,81.74 82.58,82.93 81.29,84.03 L81.15,83.92 Z" fill="#A3A3A3"/>
  <path d="M4.22,39.54 L24.42,56.06 L5.73,44.04 C5.73,44.04 6.11,43.14 6.29,42.64 L4.22,39.54 Z" fill="#A3A3A3"/>
  <g opacity="0.7">
    <path d="M45.99,11.18 L56.43,24.2 C57.07,24.16 57.67,24.14 58.25,24.14 L47.95,11.3 C47.42,11.24 46.75,11.2 45.99,11.18 Z" fill="#A3A3A3"/>
    <path d="M37.04,12.06 L49.19,25.82 C49.68,25.62 50.17,25.44 50.66,25.29 L38.69,11.73 C38.15,11.83 37.6,11.94 37.04,12.06 Z" fill="#A3A3A3"/>
  </g>
  <g opacity="0.7">
    <path d="M62.61,28.84 C62.04,28.85 61.46,28.87 60.86,28.91 C64.12,33.74 68.66,39.64 73.66,43.68 C74.35,43.57 75.04,43.49 75.75,43.44 C70.74,39.75 66.05,33.83 62.61,28.84 Z" fill="#A3A3A3"/>
    <path d="M55.26,29.79 C54.77,29.92 54.28,30.06 53.79,30.22 C56.66,34.64 61.26,41.24 66.03,46.03 C66.5,45.81 66.98,45.6 67.46,45.4 C62.82,40.84 58.2,34.29 55.26,29.79 Z" fill="#A3A3A3"/>
    <path d="M49.02,32.48 C48.68,32.7 48.35,32.92 48.03,33.16 C47.96,33.21 47.89,33.27 47.83,33.32 C50.43,37.27 55.33,44.4 60,49.61 C60.39,49.33 60.79,49.05 61.2,48.77 C56.6,43.66 51.63,36.43 49.02,32.48 Z" fill="#A3A3A3"/>
    <path d="M42.9,38.07 C45.55,41.9 50.52,48.93 54.79,53.99 C55.13,53.66 55.49,53.33 55.85,53 C51.86,48.25 47.01,41.47 43.9,36.97 C43.57,37.32 43.23,37.69 42.9,38.07 Z" fill="#A3A3A3"/>
    <path d="M38.53,43.59 C41.58,47.81 46.47,54.48 50.15,59.03 C50.45,58.66 50.77,58.28 51.1,57.9 C47.99,54.01 43.65,48.2 39.44,42.36 C39.12,42.78 38.82,43.19 38.53,43.59 Z" fill="#A3A3A3"/>
    <path d="M34.52,49.55 L45.99,64.77 C46.18,64.46 46.46,64.03 46.83,63.47 L35.35,48.23 C34.98,48.81 34.7,49.26 34.52,49.55 Z" fill="#A3A3A3"/>
  </g>
  <path d="M67.55,52.3 L64.43,54.73 L75.99,71.1 C75.99,71.1 78.54,68.62 80.38,67.94 L67.55,52.3 Z" fill="#A3A3A3"/>
  <path d="M44.61,27.94 C33.66,36.3 29.43,45.71 29.43,45.71 L13.05,30.36 C13.05,30.36 21.64,16.34 31.85,13.6 L44.61,27.94 Z" fill="#C2C2C2"/>
  <path d="M8.03,34.8 L6.83,36.34 L23.96,49.77 Z" fill="#A3A3A3"/>
  <path d="M13.05,30.36 L29.43,45.71 C29.43,45.71 31.81,40.42 37.62,34.25 L37.56,27.13 L23.95,30.01 L23.96,24.94 L16.67,25.43 C14.43,28.21 13.05,30.36 13.05,30.36 Z" fill="#A3A3A3"/>
  <g opacity="0.7">
    <path d="M71.78,50.26 L85.81,65.72 C86.48,65.46 87.15,65.24 87.8,65.06 L73.83,49.68 L71.78,50.26 Z" fill="#A3A3A3"/>
    <path d="M81.24,48.91 C80.44,48.86 79.53,48.86 78.55,48.92 L94.57,63.53 C94.57,63.53 96.2,63 97.2,63.34 L81.24,48.91 Z" fill="#A3A3A3"/>
    <path d="M59.58,59.76 L70.04,77.11 C70.48,76.57 70.92,76.04 71.37,75.52 L61,58.33 C60.53,58.79 60.05,59.27 59.58,59.76 Z" fill="#A3A3A3"/>
    <path d="M54.32,65.38 L64.08,84.49 C64.57,83.91 65.03,83.35 65.44,82.85 L55.73,63.83 C55.25,64.35 54.78,64.87 54.32,65.38 Z" fill="#A3A3A3"/>
    <path d="M48.98,71.52 L57.74,92.02 C58.15,91.53 58.63,90.96 59.15,90.35 L50.39,69.86 C49.79,70.55 49.31,71.12 48.98,71.52 Z" fill="#A3A3A3"/>
  </g>
  <path d="M38.19,71.92 L36.71,69.71 C36.58,69.52 36.52,69.29 36.55,69.06 C36.77,66.93 38.62,55.87 53.78,45.84 C65.25,38.25 73.17,38.86 75.04,39.07 C75.3,39.1 75.54,39.23 75.72,39.42 L77.59,41.5 C77.78,41.71 77.64,42.05 77.35,42.05 C74.76,42.04 65.85,42.5 55.93,49.07 C42.36,58.05 39.21,69.24 38.64,71.84 C38.58,72.05 38.31,72.09 38.19,71.92 Z" fill="#DEA076"/>
  <path d="M77.34,42.05 C75.18,42.08 73.03,42.4 70.94,42.9 C68.85,43.38 66.79,44.04 64.81,44.86 C60.84,46.49 57.1,48.63 53.68,51.23 C50.22,53.76 47.12,56.77 44.5,60.17 C43.19,61.87 42.02,63.67 41.03,65.58 C40.02,67.48 39.19,69.48 38.68,71.58 C39.36,67.28 41.4,63.28 43.91,59.72 C46.45,56.16 49.63,53.09 53.11,50.45 C56.62,47.87 60.45,45.67 64.55,44.16 C68.63,42.67 73,41.74 77.34,42.05 Z" fill="#C17E52"/>
</svg>
